X:1
T: the Orphan
R:jig
S:Geraldine Clancy, Juergen Gier <Juergen.Gier:POST.RWTH-AACHEN.DE>
L:1/8
M:6/8
K:EMin
A, | B,2E EDB, | GFG AGA | ~B3 AGA | BGE DB,A, | ~B,3 EDB, | GFG AGA | (3Bcd B AGF | GBF E2 :|
|: B | efe dBA | GAB dBd | edB AGA | BGE DB,A, | B,2E EDB, | GFG AGA | (3Bcd B AGF | GBF E2 :|
